!!!OTL: Jiemei shuangshuang qu you chun
!!!ARE: Asia, China,ÿJiangsu, Yixing
!! III, 507
!!!SCT: C1593
!!!YEM: Copyright 1995, estate of Helmut Schaffrath.
**kern
*ICvox
*Ivox
!! Mixed meters:  3/4; 2/4; 2/8
*M2/4
*k[b-]
*F:
{16a
16a
16a
16cc
16dd
16ff
16dd
16cc
4a
=1
16a
16a
16a
16cc
16ff
16gg
16ff
16dd
=2
4.cc
16dd
16cc}
=3
{16a
16a
16a
16g
16a
16cc
16dd
16ff
=4
*M3/4
8a
16cc
16a
4.a
8g
=5
*M2/4
4f
4r}
=6
{16a
16cc
16dd
16cc
8dd
8ff
=7
16ff
16gg
16dd
16cc
8a
16g
16a
=8
16f
16d
4f
8g}
=9
{16a
16a
16a
16g
16a
16cc
16dd
16ff
=10
*M3/4
8a
16cc
16a
4.a
8g
=11
*M2/8
4f}
=12
{8r
8cc
=13
16a
16cc
16dd
16cc
=14
16a
16cc
16dd
16cc
=15
16a
16cc
16dd
16cc
=16
16a
16a
16cc
16dd
=17
16cc
16dd
16cc
16dd}
=18
*M2/4
{8cc
4dd
16cc
16dd
=19
8ff
16dd
16cc
16a
16cc
16a
16g
=20
16f
16d
4f
8g}
=21
{16a
16a
16a
16g
16a
16cc
16dd
16ff
=22
*M3/4
8a
16cc
16a
4.a
8g
=23
4f
4r}
==
!!!AGN: Shange, Tangdao jikou shange
!!!AMT: irregular
!!!AIN: vox
!!!EED: Helmut Schaffrath
!!!EEV: 1.0
*-
